X:1
T:Watts
I:abc2nwc
M:4/4
L:1/8
K:Ab
E2A2G2A2|B2d2c3/2B/2 A2|d2d2c2e2|B2B2A4|
E2A2G2A2|B2d2c3/2B/2 A2|d2d2c2e2|B2B2A4|]
